img/svg/icon-font/salary.svg

<svg width="22" height="22" viewBox="0 0 22 22" fill="none" xmlns="http://www.w3.org/2000/svg">
<g clip-path="url(#clip0)">
<path d="M15.1888 10.7734C14.9612 10.6813 14.7309 10.5975 14.499 10.521C15.9213 9.45413 16.8433 7.75452 16.8433 5.84375C16.8433 2.62143 14.2217 0 10.9995 0C7.77721 0 5.15578 2.62143 5.15578 5.84375C5.15578 7.7562 6.07928 9.45715 7.50379 10.5238C6.19878 10.9533 4.974 11.6215 3.9023 12.5031C1.93732 14.1194 0.571051 16.3739 0.0552577 18.8514C-0.106379 19.6277 0.0873165 20.4249 0.586492 21.0389C1.08332 21.6497 1.81983 22 2.60737 22H14.6089C15.0834 22 15.4683 21.6153 15.4683 21.1406C15.4683 20.666 15.0834 20.2812 14.6089 20.2812H2.60737C2.24045 20.2812 2.01923 20.0765 1.91987 19.9545C1.74849 19.7436 1.6822 19.4694 1.73792 19.2017C2.63036 14.9149 6.41346 11.7845 10.7808 11.683C10.8533 11.6857 10.9262 11.6875 10.9995 11.6875C11.0732 11.6875 11.1464 11.6857 11.2196 11.683C12.3685 11.709 13.4858 11.9386 14.5445 12.3668C14.9845 12.5445 15.4854 12.3322 15.6633 11.8923C15.8412 11.4522 15.6289 10.9513 15.1888 10.7734ZM6.87453 5.84375C6.87453 3.56926 8.72487 1.71875 10.9995 1.71875C13.274 1.71875 15.1245 3.56926 15.1245 5.84375C15.1245 8.05211 13.3801 9.86049 11.1969 9.96388C11.1311 9.96288 11.0653 9.9617 10.9995 9.9617C10.9324 9.9617 10.8654 9.96254 10.7985 9.96388C8.61695 9.85864 6.87453 8.05093 6.87453 5.84375ZM21.9995 18.083V18.2939C21.9995 19.5055 21.1183 20.4778 19.9362 20.643V21.1406C19.9362 21.6153 19.5513 22 19.0768 22C18.6021 22 18.2174 21.6153 18.2174 21.1406V20.666C17.0541 20.6258 16.1539 19.7166 16.1539 18.5625C16.1539 18.0878 16.5388 17.7031 17.0133 17.7031C17.488 17.7031 17.8727 18.0878 17.8727 18.5625C17.8727 18.8165 18.0865 18.9492 18.2977 18.9492H19.5775C19.9785 18.9492 20.2808 18.6674 20.2808 18.2939V18.083C20.2808 17.7013 19.9719 17.4023 19.5775 17.4023H18.7901C17.4571 17.4023 16.3728 16.3036 16.3728 14.9531V14.6398C16.3728 13.9902 16.6263 13.3846 17.0865 12.9343C17.4025 12.6251 17.7921 12.4131 18.2174 12.3126V11.7305C18.2174 11.2558 18.6021 10.8711 19.0768 10.8711C19.5513 10.8711 19.9362 11.2558 19.9362 11.7305V12.283C20.9381 12.4673 21.6988 13.3267 21.6988 14.3566C21.6988 14.8311 21.3139 15.216 20.8394 15.216C20.3647 15.216 19.98 14.8311 19.98 14.3566C19.98 14.1114 19.7536 13.9648 19.5347 13.9648H18.7901C18.3918 13.9648 18.0916 14.2551 18.0916 14.6398V14.9531C18.0916 15.3491 18.4115 15.6836 18.7901 15.6836H19.5775C20.2227 15.6836 20.8286 15.9292 21.2838 16.375C21.7452 16.827 21.9995 17.4336 21.9995 18.083Z" fill="#4C51CB"/>
</g>
<defs>
<clipPath id="clip0">
<rect width="22" height="22" fill="white"/>
</clipPath>
</defs>
</svg>

<svg width="22" height="22" fill="none" xmlns="http://www.w3.org/2000/svg"><g clip-path="url(#clip0)"><path d="M15.189 10.773a11.154 11.154 0 00-.69-.252 5.839 5.839 0 002.344-4.677A5.85 5.85 0 0011 0a5.85 5.85 0 00-5.843 5.844c0 1.912.923 3.613 2.348 4.68a11.164 11.164 0 00-3.602 1.98A11.212 11.212 0 00.055 18.85 2.61 2.61 0 002.607 22H14.61a.86.86 0 000-1.719H2.607a.873.873 0 01-.687-.326.898.898 0 01-.182-.753c.892-4.287 4.675-7.418 9.043-7.519a5.873 5.873 0 00.439 0 9.397 9.397 0 013.324.684.86.86 0 00.645-1.594zm-8.314-4.93a4.13 4.13 0 014.124-4.124 4.13 4.13 0 014.125 4.125 4.13 4.13 0 01-3.927 4.12L11 9.962c-.068 0-.135 0-.201.002a4.13 4.13 0 01-3.924-4.12zM22 18.084v.21c0 1.213-.882 2.185-2.064 2.35v.498a.86.86 0 01-1.719 0v-.475c-1.163-.04-2.063-.95-2.063-2.104a.86.86 0 011.719 0c0 .255.213.387.425.387h1.28c.4 0 .703-.282.703-.655v-.211a.685.685 0 00-.703-.68h-.788c-1.333 0-2.417-1.1-2.417-2.45v-.313c0-.65.253-1.255.713-1.706.317-.309.706-.52 1.131-.621v-.583a.86.86 0 111.72 0v.553c1.001.184 1.762 1.044 1.762 2.074a.86.86 0 01-1.719 0c0-.246-.226-.392-.445-.392h-.745c-.398 0-.698.29-.698.675v.313c0 .396.32.73.698.73h.788c.645 0 1.25.246 1.706.692.461.452.716 1.059.716 1.708z" fill="#4C51CB"/></g><defs><clipPath id="clip0"><path fill="#fff" d="M0 0h22v22H0z"/></clipPath></defs></svg>
